X:0
T:The Ewie wi the Crookit Horn
G:jig
C:arr. John A MacLellan
M:6/8
L:1/8
Q:3/8=120
K:AMix
   AAA A2B|G2A BGG|AAA A2B|d2B cAA|
   d2c B2A|G2A BGG|A2B cAA|BGG A3:|
   Bee e2f|d2e dBB|cee e2f|gee f2d|
[1 Bee e2f|d2e dBB|cee efg|fdd e3:|
[2 g2e fed|e2d cAA|Bee efg|fdd e3|]

This is a natural way of getting tonal variety on a bagpipe, since
changing the key signature is impossible.  It can be useful on other
instruments.  Here's an example of a set I constructed to play with
a friend who uses a lever harp.  It never changes the absolute pitch
set, so she never needs to flip a lever.  And for the hell of it,
there is no change in rhythmic pattern either, until the very last
tune.  Instead the variety comes from a continual change in tonal
centre.  It also alternates familiar and rarely-played tunes.

